storage/app/icons/tabler/filled/device-floppy.svg

<!--
unicode: "101e0"
version: "3.38"
-->
<svg
  xmlns="http://www.w3.org/2000/svg"
  width="24"
  height="24"
  viewBox="0 0 24 24"
  fill="currentColor"
>
  <path d="M16 3a1 1 0 0 1 .707 .293l4 4a1 1 0 0 1 .293 .707v10a3 3 0 0 1 -3 3h-12a3 3 0 0 1 -3 -3v-12a3 3 0 0 1 3 -3h1v4a1 1 0 0 0 .883 .993l.117 .007h6a1 1 0 0 0 1 -1v-4zm-4 8a2.995 2.995 0 0 0 -2.995 2.898a1 1 0 0 0 -.005 .102a3 3 0 1 0 3 -3m1 -8v3h-4v-3z" />
</svg>

<svg xmlns="http://www.w3.org/2000/svg" width="24" height="24" fill="currentColor" viewBox="0 0 24 24"><path d="M16 3a1 1 0 0 1 .707.293l4 4A1 1 0 0 1 21 8v10a3 3 0 0 1-3 3H6a3 3 0 0 1-3-3V6a3 3 0 0 1 3-3h1v4a1 1 0 0 0 .883.993L8 8h6a1 1 0 0 0 1-1V3zm-4 8a2.995 2.995 0 0 0-2.995 2.898A1 1 0 0 0 9 14a3 3 0 1 0 3-3m1-8v3H9V3z"/></svg>
